assets/svg/refresh.svg

<svg width="50px" height="50px" viewBox="0 0 50 50" version="1.1" xmlns="http://www.w3.org/2000/svg" xmlns:xlink="http://www.w3.org/1999/xlink">
    <defs>
        <path d="M27.7333676,6.03885184 L15.3734327,0.238957224 C14.1017133,-0.357456719 12.593513,0.200975613 12.0038331,1.48670446 C11.4141531,2.77243332 11.9662803,4.29837019 13.2374922,4.89478413 L17.9041847,7.08488593 C11.904369,9.08200009 7.16815315,14.0724758 5.57977261,20.4354221 C3.55598297,28.5455226 6.94131414,36.9102024 14.0037716,41.2493448 C14.4153296,41.5018712 14.8700226,41.6230018 15.3186259,41.6230018 C16.1757425,41.6230018 17.0125602,41.1831336 17.4895818,40.3880861 C18.2172935,39.1767807 17.8361837,37.5984908 16.6385549,36.8624688 C11.491796,33.7002431 9.02498522,27.6036813 10.5007075,21.6918949 C11.6952914,16.9046721 15.334865,13.1865804 19.9076755,11.8295077 L17.8387211,16.943167 C17.3084151,18.2545591 17.9295581,19.7532929 19.2261435,20.2901681 C19.5407748,20.4205374 19.866063,20.4821292 20.1862764,20.4821292 C21.185992,20.481616 22.1334381,19.8805826 22.5353542,18.8869016 L27.7333676,6.03885184 Z M44.4199902,29.5638403 C42.8321172,35.9272999 38.0953939,40.9177756 32.0950707,42.9148898 L36.7627781,45.1055049 C38.03399,45.7019188 38.5866246,47.2278557 37.9964372,48.5130713 C37.5671178,49.4497799 36.6501198,50 35.6935392,50 C35.3352655,50 34.9729321,49.9230102 34.6268376,49.7608185 L22.2669027,43.9609239 L27.4644086,31.1128741 C27.995222,29.801482 29.4770339,29.1732457 30.7736193,29.7096076 C32.0707122,30.2464828 32.6918552,31.7447034 32.1615493,33.0566087 L30.0925948,38.170268 C34.6654053,36.8131953 38.3049789,33.0945903 39.5000703,28.3078809 C40.9752851,22.3960945 38.5084743,16.2995327 33.3617154,13.1373069 C32.1635791,12.4012849 31.7824693,10.822995 32.510181,9.61168958 C33.2373853,8.40089742 34.7983624,8.0154354 35.9959912,8.75043089 C43.0589562,13.0895733 46.4442873,21.4537399 44.4199902,29.5638403 Z" id="path-1"></path>
    </defs>
</svg>

<svg width="50" height="50" xmlns="http://www.w3.org/2000/svg"><defs><path d="M27.733 6.039l-12.36-5.8a2.525 2.525 0 00-3.37 1.248c-.589 1.285-.037 2.811 1.234 3.408l4.667 2.19c-6 1.997-10.736 6.987-12.324 13.35-2.024 8.11 1.361 16.475 8.424 20.814.411.253.866.374 1.315.374a2.53 2.53 0 002.17-1.235 2.583 2.583 0 00-.85-3.526c-5.147-3.162-7.614-9.258-6.138-15.17 1.194-4.787 4.834-8.505 9.407-9.862l-2.07 5.113c-.53 1.312.092 2.81 1.388 3.347.315.13.64.192.96.192 1 0 1.947-.601 2.35-1.595l5.197-12.848zM44.42 29.564c-1.588 6.363-6.325 11.354-12.325 13.35l4.668 2.192a2.578 2.578 0 011.233 3.407A2.535 2.535 0 0135.694 50c-.359 0-.721-.077-1.067-.24l-12.36-5.8 5.197-12.847a2.528 2.528 0 013.31-1.403c1.297.536 1.918 2.035 1.388 3.347l-2.07 5.113c4.573-1.357 8.213-5.075 9.408-9.862 1.475-5.912-.992-12.008-6.138-15.17a2.583 2.583 0 01-.852-3.526 2.522 2.522 0 013.486-.862c7.063 4.34 10.448 12.704 8.424 20.814z" id="path-1"/></defs></svg>
